X:31
T:Polkas 1 - Burlington Quay*
T:Nancy Dawson's Fancy
M:2/4
L:1/8
K:G
d/c/ | "G"BG "G/B"dB | "C"A/G/F/E/ "D"Dc | "G"BG "G/B"gB | "C"B"D"A3c |
"G"Bg "Am"fe | "G/b"dB "C"ec | "C"B2 "D"A2| "G"G G3 :|
(3e/f/g/ | "D"fe/d/ "C"ee | "G/B"dc/B/ "Am"c2 | "G"BG "G/B"gB | "C"B"D"A3"Em"g |
"D"fd "C"ec | "G/B"dc/B/ "C"ec | "D"B2 A2 | "G"G G3 :|
T:Burlington Quay
K:D
"D"D>D DB | AD "Bm"BD | "A"CA, A,D | C/D/E/C/ A,C |
"D"D>D DB | AD "D/F#"Fd | "G"Ad "A"f/e/d/c/ | "D"d4 :|
"D"dA fA | "G"gA "D"fA | Ff "Em"g/f/e/d/ | "A"ce ef |
"G"B>G Bd | "D"A>F Ad | "G"Ad "A"f/e/d/c/ | "D"d4 :|
%%newpage

